X:1
T:Haste to the Wedding
L:1/8
M:6/8
I:linebreak $
K:D
V:1 treble
V:1
 B | "D"AFA Agf |"G" ede"D" fdB | A2 A AGF | "A"E2 E EFG |"D" AFA Agf | "G"ede "D"fdB |$
 "D"AFA "A"faf | "D"d2- d fg ||  "D"a2 a afa | "G"b2 b bag | "D"fga agf |$
 "A"gfg efg | "D"a3 f3 | "G"ede "D"fdB | "D"AFA "A"faf | "D"d2 d d2 |]
